X: 2358
T: SEVEN UP
R: Hornpipe.
%R: hornpipe, reel
B: James Kerr "Merry Melodies" v.2 p.39 #358
Z: 2016 John Chambers <jc:trillian.mit.edu>
M: C
L: 1/8
K: G
D2 |\
(3GGG BG d2Bd | efge edBc |\
ceAc BdGB |[1,3 ABcA GFED :|[2,4 AGFA G2 ::\
d2 |\
gfga bgdg |
edef gdBd |\
gfga bgdg | egfa g2(gd) |\
gfga bgdg | edef gdBG |\
DGBd gdBd | egfa g2 :|
